site/static/img/stockland.svg

<svg height="71" viewBox="0 0 94 71" width="94" xmlns="http://www.w3.org/2000/svg"><g fill="#1c1c1c" fill-rule="evenodd" opacity=".498641" transform=""><path d="m37.7276281 30.3499848c2.3882117 1.6989129 5.2411328 2.774119 8.3286006 2.9930938v-2.3152988c-1.1475253-.0946269-2.2555942-.3263862-3.3099584-.6781228zm-7.6392086-.0003278-3.8864611.0017483c3.0030748 8.3176583 10.6970841 14.3537819 19.8542703 14.8304129v-3.6483795c-7.1339468-.4429761-13.187225-4.9105446-15.9678092-11.1837817zm4.8586243 0-3.7560355.0006556c3.2595418 4.9082499 8.6661725 8.2372364 14.8652204 8.612138v-3.0236891c-4.4246033-.3169891-8.359289-2.4153892-11.1091849-5.5891045zm35.2828413-7.7592943c0-12.0954122-9.3840609-21.97550657-21.20675-22.5903627v3.64674044c9.2426752.57366176 16.6692573 7.90090676 17.5208592 17.16122796-2.0506398-8.0431749-9.0453929-14.07755018-17.5208592-14.58991208v3.02336134c8.4699862.60709804 15.1457997 7.74104634 15.1457997 16.45524154l-.0010961.1424866c-1.2001339-7.5793283-7.4408303-13.4563564-15.1447036-14.0017175v2.314971c7.3202689.6029459 13.0688556 6.7967445 13.0688556 14.3505039 0 .6254552-.0394565 1.2419504-.1161774 1.846426-.8472178 6.6912999-6.2406964 11.9468065-12.9526782 12.5044057v2.3274277c9.1528021-.4820944 16.8490034-6.5167975 19.8542703-14.8315056l-5.1764681-.0003278 5.1764681-.0006556c.8746181-2.4197599 1.3524797-5.0327073 1.3524797-7.7583109zm-45.3793104 0c0 2.726587.4767655 5.34019 1.3513837 7.7592943l3.8864611-.0013112c-.8220096-1.8535285-1.3579598-3.8640763-1.55305-5.9755887.5512943 2.1600277 1.4587929 4.1753834 2.6556388 5.9768999l3.7560355-.0013112c-2.5131571-2.9018544-4.0355188-6.7028825-4.0355188-10.8642795l.001096-.1424866c.7189844 4.5409971 3.2474857 8.4700884 6.8150071 11.0080773l5.0186422-.0013112c-5.6707698-1.8986565-9.7578012-7.3009112-9.7578012-13.6710699 0-7.55004424 5.7507787-13.74242237 13.0677596-14.35006676v-2.32644426c-11.8150171.62152154-21.205654 10.49757302-21.205654 22.58959782z"/><path d="m10.4343111 55.6168111c-1.23886017-.5495533-2.54286334-.7531747-4.34743916-.7531747-3.32572237 0-5.58629929 1.8315232-5.58629929 3.9684252 0 1.8318443 1.0434311 3.1141353 3.15200766 4.0094063l1.84800449.7329517c1.93486185.7531748 2.45600598 1.4247084 2.45600598 2.564475 0 1.0786695-1.08685979 1.9535036-3.0000073 1.9535036-1.49943222 0-2.93486428-.3457178-4.17372443-.9361452l-.78285905 1.8113002c1.43543206.6310875 3.15200766.9566892 5.08686951.9566892 3.19543634 0 5.71772819-1.709757 5.71772819-4.2128138 0-1.9948056-1.02171677-3.2361155-3.41372259-4.1928047l-1.56457523-.6512036c-2.06514788-.8140579-2.52114899-1.4448243-2.52114899-2.3809695 0-1.0382234.97714524-1.7912912 2.93372142-1.7912912 1.34857471 0 2.54400619.3054857 3.43543693.7125147z"/><path d="m18.9128914 61.9947014v-1.7374953h-3.0975068c0-.9956872.0396581-2.1187038.1586324-3.2420546l-2.4807189.5721469c.0396581.9536897.0396581 1.6529432.0396581 2.6699077h-1.6478987v1.7374953h1.6280696c0 1.7587725-.0793162 3.8564218-.0793162 5.4455332 0 2.3096422 1.2899321 3.5597654 3.017147 3.5597654 1.1907868 0 2.2625994-.3180451 2.997318-.890192l-.4957264-1.4829478c-.4967699.3389881-.9924963.4659834-1.6875568.4659834s-1.3692483-.4659834-1.4496081-1.4829479c-.1189744-1.4410616-.0396581-3.5810427-.0396581-5.6151943z"/><path d="m20.5287356 64.6801476c0 3.1090567 2.2605962 5.2440948 5.9205524 5.2440948 3.5245343 0 5.9645051-2.4458348 5.9645051-5.4929937 0-3.0882424-2.3271192-5.264582-5.9645051-5.264582-3.5257222 0-5.9205524 2.4249116-5.9205524 5.5134809zm9.0388209-.1246674c0 2.2180771-1.1308921 3.7521182-3.1182685 3.7521182-1.965994 0-3.0956981-1.5545284-3.0956981-3.7521182 0-2.2176411 1.1297041-3.7513552 3.0956981-3.7513552s3.1182685 1.5337141 3.1182685 3.7513552z"/><path d="m38.0283085 60.886728c.8472737 0 1.675436.2073794 2.3220396.5183941l.5850223-1.6787599c-.9077932-.3732393-1.8368214-.5596955-3.1300286-.5596955-3.1098555 0-5.3915487 2.3419816-5.3915487 5.3270247 0 3.5858223 2.2010005 5.430551 4.9679118 5.430551 1.4938773 0 2.6458723-.3316109 3.6757664-1.0569485l-.5659109-1.534041c-.7071232.5180671-1.5352854.7253376-2.3825591.7253376-1.8378832 0-3.19161-1.18118-3.19161-3.813798 0-2.0521081 1.1509332-3.3580645 3.1109172-3.3580645z"/><path d="m46.0644743 70.6080468c-.0666229-1.8779688-.1332458-3.6111112-.1332458-5.1589628 1.4002496 1.6716319 3.7565963 4.0649004 5.3356759 5.550916l2.7560841-.9699566c-1.622326-1.3206858-4.0675032-3.6317233-5.4911294-5.2207988 1.4668726-1.3203604 3.778804-3.2394447 5.1358073-4.4361331h-3.0237445c-1.0671352 1.072908-3.3124438 3.1364932-4.7126934 4.415738 0-4.5602389.0222076-6.7887199.1332458-9.9252131h-2.8460835c.1110382 3.1364932.1332458 4.9523006.1332458 8.1299093 0 2.9715973-.0222076 4.6843447-.1332458 7.6145011z"/><path d="m58.1930751 63.1959377c0-3.2567145.0239609-5.1177259.1517525-8.3323013h-3.2413793c.1264604 3.2145754.1517524 5.0755868.1517524 8.3323013 0 3.0455745-.025292 4.8009604-.1517524 7.8040623h3.2413793c-.1277916-3.0031019-.1517525-4.7584878-.1517525-7.8040623z"/><path d="m68.9515897 64.937363c0-2.3128589.0219818-3.5252446.1978356-5.7706963l-1.8927425.5837631c-.8144808-.2693928-1.5849982-.4039712-2.7511868-.4039712-3.3886568 0-6.1606684 2.469749-6.1606684 6.129572 0 3.5703402 2.0234759 5.5239694 4.2459443 5.5239694 1.4750896 0 2.8830771-.6510523 3.7415214-2.0657778l.1978356 1.8190508h2.5533512c-.1318904-2.4253617-.1318904-3.4356438-.1318904-5.81591zm-7.9006957 0c0-2.4926509 1.5618596-3.8621627 3.3446934-3.8621627.7924991 0 1.3420423.1123847 1.9147242.3817775.0439635.5612154.0659452 1.976177.0659452 3.2558519 0 .8982515-.0219817 1.9085336-.0659452 2.6047995-.7045722 1.1449785-1.5618596 1.5943994-2.5302126 1.5943994-1.5630165 0-2.729205-1.2126218-2.729205-3.9746656z"/><path d="m74.8533747 59.4206152h-2.4625701c.106049 2.1386897.1272588 3.13411.1272588 5.2940641 0 2.0116598-.0212098 3.2188338-.1272588 5.2095631h2.7170878c-.0848392-1.5250271-.106049-2.414348-.106049-3.9389298 0-1.1859095.0212098-2.4987377.106049-3.3671281.6374105-.9950863 1.5293386-1.4611225 2.4212668-1.4611225 1.125236 0 1.8463694.6774558 1.932325 2.0538546.0424196.6991656.0636294 2.0119938.0636294 3.2400982 0 1.3763988-.0212098 2.1386897-.1060491 3.4732276h2.695878c-.106049-1.4189276-.106049-2.2025943-.106049-3.6001462 0-1.1433807.0636294-1.9694649.0636294-3.3458637 0-2.4140139-1.4009635-3.8115658-3.4393375-3.8115658-1.5505484 0-2.6969943.6561914-3.5677126 1.9691309z"/><path d="m91.1655683 54.8636364c.0896309 2.1055389.1338643 3.7319882.1338643 5.5249297-.5319652-.1250609-1.0848831-.2084714-1.9043656-.2084714-3.4094664 0-6.1996647 2.2930755-6.1996647 5.6910931 0 3.3149359 2.0370659 5.1288122 4.2731823 5.1288122 1.484148 0 2.9007819-.6044793 3.7644978-1.9180024l.1990505 1.688925h2.5678671c-.1105836-2.9604688-.1327003-4.6909346-.1327003-7.6932731 0-3.210481 0-5.0450729.1327003-8.2140131zm-5.2463178 10.5074174c0-2.3143391 1.5714508-3.585883 3.3652329-3.585883.7973658 0 1.3724004.1043453 1.948599.3544671.0221168.6460201.0430694 1.8348112.0430694 3.0229445 0 .8339951-.0209526 1.7720067-.0663501 2.4184652-.7077349 1.0630725-1.5714509 1.480344-2.5457504 1.480344-1.5714509 0-2.7448008-1.1258769-2.7448008-3.6903378z"/></g></svg>

<svg width="94px" height="71px" viewBox="0 0 94 71" version="1.1" xmlns="http://www.w3.org/2000/svg" xmlns:xlink="http://www.w3.org/1999/xlink">
    <!-- Generator: Sketch 48.2 (47327) - http://www.bohemiancoding.com/sketch -->
    <desc>Created with Sketch.</desc>
    <defs></defs>
    <g id="All" stroke="none" stroke-width="1" fill="none" fill-rule="evenodd" opacity="0.498641304">
        <g id="Home" transform="translate(-964.000000, -1220.000000)" fill="#1C1C1C">
            <g id="Group-10" transform="translate(650.000000, 1220.000000)">
                <g id="Group-7" transform="translate(314.000000, 0.000000)">
                    <path d="M37.7276281,30.3499848 C40.1158398,32.0488977 42.9687609,33.1241038 46.0562287,33.3430786 L46.0562287,31.0277798 C44.9087034,30.9331529 43.8006345,30.7013936 42.7462703,30.349657 L37.7276281,30.3499848 Z M30.0884195,30.349657 L26.2019584,30.3514053 C29.2050332,38.6690636 36.8990425,44.7051872 46.0562287,45.1818182 L46.0562287,41.5334387 C38.9222819,41.0904626 32.8690037,36.6228941 30.0884195,30.349657 Z M34.9470438,30.349657 L31.1910083,30.3503126 C34.4505501,35.2585625 39.8571808,38.587549 46.0562287,38.9624506 L46.0562287,35.9387615 C41.6316254,35.6217724 37.6969397,33.5233723 34.9470438,30.349657 Z M70.2298851,22.5903627 C70.2298851,10.4949505 60.8458242,0.61485613 49.0231351,0 L49.0231351,3.64674044 C58.2658103,4.2204022 65.6923924,11.5476472 66.5439943,20.8079684 C64.4933545,12.7647935 57.4986014,6.73041822 49.0231351,6.21805632 L49.0231351,9.24141766 C57.4931213,9.8485157 64.1689348,16.982464 64.1689348,25.6966592 L64.1678387,25.8391458 C62.9677048,18.2598175 56.7270084,12.3827894 49.0231351,11.8374283 L49.0231351,14.1523993 C56.343404,14.7553452 62.0919907,20.9491438 62.0919907,28.5029032 C62.0919907,29.1283584 62.0525342,29.7448536 61.9758133,30.3493292 C61.1285955,37.0406291 55.7351169,42.2961357 49.0231351,42.8537349 L49.0231351,45.1811626 C58.1759372,44.6990682 65.8721385,38.6643651 68.8774054,30.349657 L63.7009373,30.3493292 L68.8774054,30.3486736 C69.7520235,27.9289137 70.2298851,25.3159663 70.2298851,22.5903627 Z M24.8505747,22.5903627 C24.8505747,25.3169497 25.3273402,27.9305527 26.2019584,30.349657 L30.0884195,30.3483458 C29.2664099,28.4948173 28.7304597,26.4842695 28.5353695,24.3727571 C29.0866638,26.5327848 29.9941624,28.5481405 31.1910083,30.349657 L34.9470438,30.3483458 C32.4338867,27.4464914 30.911525,23.6454633 30.911525,19.4840663 L30.912621,19.3415797 C31.6316054,23.8825768 34.1601067,27.8116681 37.7276281,30.349657 L42.7462703,30.3483458 C37.0755005,28.4496893 32.9884691,23.0474346 32.9884691,16.6772759 C32.9884691,9.12723166 38.7392478,2.93485353 46.0562287,2.32720914 L46.0562287,0.000764882337 C34.2412116,0.622286416 24.8505747,10.4983379 24.8505747,22.5903627 Z" id="Fill-70"></path>
                    <path d="M10.4343111,55.6168111 C9.19545093,55.0672578 7.89144776,54.8636364 6.08687194,54.8636364 C2.76114957,54.8636364 0.500572646,56.6951596 0.500572646,58.8320616 C0.500572646,60.6639059 1.54400375,61.9461969 3.65258031,62.8414679 L5.5005848,63.5744196 C7.43544665,64.3275944 7.95659078,64.999128 7.95659078,66.1388946 C7.95659078,67.2175641 6.86973099,68.0923982 4.95658348,68.0923982 C3.45715126,68.0923982 2.0217192,67.7466804 0.782859046,67.156253 L0,68.9675532 C1.43543206,69.5986407 3.15200766,69.9242424 5.08686951,69.9242424 C8.28230585,69.9242424 10.8045977,68.2144854 10.8045977,65.7114286 C10.8045977,63.716623 9.78288093,62.4753131 7.39087511,61.5186239 L5.82629988,60.8674203 C3.761152,60.0533624 3.30515089,59.422596 3.30515089,58.4864508 C3.30515089,57.4482274 4.28229613,56.6951596 6.23887231,56.6951596 C7.58744702,56.6951596 8.7828785,57.0006453 9.67430924,57.4076743 L10.4343111,55.6168111 Z" id="Fill-71"></path>
                    <path d="M18.9128914,61.9947014 L18.9128914,60.2572061 L15.8153846,60.2572061 C15.8153846,59.2615189 15.8550427,58.1385023 15.974017,57.0151515 L13.4932981,57.5872984 C13.5329562,58.5409881 13.5329562,59.2402416 13.5329562,60.2572061 L11.8850575,60.2572061 L11.8850575,61.9947014 L13.5131271,61.9947014 C13.5131271,63.7534739 13.4338109,65.8511232 13.4338109,67.4402346 C13.4338109,69.7498768 14.723743,71 16.4509579,71 C17.6417447,71 18.7135573,70.6819549 19.4482759,70.109808 L18.9525495,68.6268602 C18.4557796,68.9658483 17.9600532,69.0928436 17.2649927,69.0928436 C16.5699322,69.0928436 15.8957444,68.6268602 15.8153846,67.6098957 C15.6964102,66.1688341 15.7757265,64.028853 15.7757265,61.9947014 L18.9128914,61.9947014 Z" id="Fill-72"></path>
                    <path d="M20.5287356,64.6801476 C20.5287356,67.7892043 22.7893318,69.9242424 26.449288,69.9242424 C29.9738223,69.9242424 32.4137931,67.4784076 32.4137931,64.4312487 C32.4137931,61.3430063 30.0866739,59.1666667 26.449288,59.1666667 C22.9235658,59.1666667 20.5287356,61.5915783 20.5287356,64.6801476 Z M29.5675565,64.5554802 C29.5675565,66.7735573 28.4366644,68.3075984 26.449288,68.3075984 C24.483294,68.3075984 23.3535899,66.75307 23.3535899,64.5554802 C23.3535899,62.3378391 24.483294,60.804125 26.449288,60.804125 C28.415282,60.804125 29.5675565,62.3378391 29.5675565,64.5554802 Z" id="Fill-73"></path>
                    <path d="M38.0283085,60.886728 C38.8755822,60.886728 39.7037445,61.0941074 40.3503481,61.4051221 L40.9353704,59.7263622 C40.0275772,59.3531229 39.098549,59.1666667 37.8053418,59.1666667 C34.6954863,59.1666667 32.4137931,61.5086483 32.4137931,64.4936914 C32.4137931,68.0795137 34.6147936,69.9242424 37.3817049,69.9242424 C38.8755822,69.9242424 40.0275772,69.5926315 41.0574713,68.8672939 L40.4915604,67.3332529 C39.7844372,67.85132 38.956275,68.0585905 38.1090013,68.0585905 C36.2711181,68.0585905 34.9173913,66.8774105 34.9173913,64.2447925 C34.9173913,62.1926844 36.0683245,60.886728 38.0283085,60.886728 Z" id="Fill-74"></path>
                    <path d="M46.0644743,70.6080468 C45.9978514,68.730078 45.9312285,66.9969356 45.9312285,65.449084 C47.3314781,67.1207159 49.6878248,69.5139844 51.2669044,71 L54.0229885,70.0300434 C52.4006625,68.7093576 49.9554853,66.3983201 48.5318591,64.8092446 C49.9987317,63.4888842 52.3106631,61.5697999 53.6676664,60.3731115 L50.6439219,60.3731115 C49.5767867,61.4460195 47.3314781,63.5096047 45.9312285,64.7888495 C45.9312285,60.2286106 45.9534361,58.0001296 46.0644743,54.8636364 L43.2183908,54.8636364 C43.329429,58.0001296 43.3516366,59.815937 43.3516366,62.9935457 C43.3516366,65.965143 43.329429,67.6778904 43.2183908,70.6080468 L46.0644743,70.6080468 Z" id="Fill-75"></path>
                    <path d="M58.1930751,63.1959377 C58.1930751,59.9392232 58.217036,58.0782118 58.3448276,54.8636364 L55.1034483,54.8636364 C55.2299087,58.0782118 55.2552007,59.9392232 55.2552007,63.1959377 C55.2552007,66.2415122 55.2299087,67.9968981 55.1034483,71 L58.3448276,71 C58.217036,67.9968981 58.1930751,66.2415122 58.1930751,63.1959377 Z" id="Fill-76"></path>
                    <path d="M68.9515897,64.937363 C68.9515897,62.6245041 68.9735715,61.4121184 69.1494253,59.1666667 L67.2566828,59.7504298 C66.442202,59.481037 65.6716846,59.3464586 64.505496,59.3464586 C61.1168392,59.3464586 58.3448276,61.8162076 58.3448276,65.4760306 C58.3448276,69.0463708 60.3683035,71 62.5907719,71 C64.0658615,71 65.473849,70.3489477 66.3322933,68.9342222 L66.5301289,70.753273 L69.0834801,70.753273 C68.9515897,68.3279113 68.9515897,67.3176292 68.9515897,64.937363 Z M61.050894,64.937363 C61.050894,62.4447121 62.6127536,61.0752003 64.3955874,61.0752003 C65.1880865,61.0752003 65.7376297,61.187585 66.3103116,61.4569778 C66.3542751,62.0181932 66.3762568,63.4331548 66.3762568,64.7128297 C66.3762568,65.6110812 66.3542751,66.6213633 66.3103116,67.3176292 C65.6057394,68.4626077 64.748452,68.9120286 63.780099,68.9120286 C62.2170825,68.9120286 61.050894,67.6994068 61.050894,64.937363 Z" id="Fill-77"></path>
                    <path d="M74.8533747,59.4206152 L72.3908046,59.4206152 C72.4968536,61.5593049 72.5180634,62.5547252 72.5180634,64.7146793 C72.5180634,66.7263391 72.4968536,67.9335131 72.3908046,69.9242424 L75.1078924,69.9242424 C75.0230532,68.3992153 75.0018434,67.5098944 75.0018434,65.9853126 C75.0018434,64.7994031 75.0230532,63.4865749 75.1078924,62.6181845 C75.7453029,61.6230982 76.637231,61.157062 77.5291592,61.157062 C78.6543952,61.157062 79.3755286,61.8345178 79.4614842,63.2109166 C79.5039038,63.9100822 79.5251136,65.2229104 79.5251136,66.4510148 C79.5251136,67.8274136 79.5039038,68.5897045 79.4190645,69.9242424 L82.1149425,69.9242424 C82.0088935,68.5053148 82.0088935,67.7216481 82.0088935,66.3240962 C82.0088935,65.1807155 82.0725229,64.3546313 82.0725229,62.9782325 C82.0725229,60.5642186 80.6715594,59.1666667 78.6331854,59.1666667 C77.082637,59.1666667 75.9361911,59.8228581 75.0654728,61.1357976 L74.8533747,59.4206152 Z" id="Fill-78"></path>
                    <path d="M91.1655683,54.8636364 C91.2551992,56.9691753 91.2994326,58.5956246 91.2994326,60.3885661 C90.7674674,60.2635052 90.2145495,60.1800947 89.395067,60.1800947 C85.9856006,60.1800947 83.1954023,62.4731702 83.1954023,65.8711878 C83.1954023,69.1861237 85.2324682,71 87.4685846,71 C88.9527326,71 90.3693665,70.3955207 91.2330824,69.0819976 L91.4321329,70.7709226 L94,70.7709226 C93.8894164,67.8104538 93.8672997,66.079988 93.8672997,63.0776495 C93.8672997,59.8671685 93.8672997,58.0325766 94,54.8636364 L91.1655683,54.8636364 Z M85.9192505,65.3710538 C85.9192505,63.0567147 87.4907013,61.7851708 89.2844834,61.7851708 C90.0818492,61.7851708 90.6568838,61.8895161 91.2330824,62.1396379 C91.2551992,62.785658 91.2761518,63.9744491 91.2761518,65.1625824 C91.2761518,65.9965775 91.2551992,66.9345891 91.2098017,67.5810476 C90.5020668,68.6441201 89.6383508,69.0613916 88.6640513,69.0613916 C87.0926004,69.0613916 85.9192505,67.9355147 85.9192505,65.3710538 Z" id="Fill-79"></path>
                </g>
            </g>
        </g>
    </g>
</svg>
